app/dist/common/images/infore-environment.svg

<svg height="18" viewBox="0 0 18 18" width="18" xmlns="http://www.w3.org/2000/svg"><path d="m0 0h18v18h-18z" fill="#f0f3fa"/><path d="m11.98 5a.94.94 0 0 1 1.02 1.02l-.04.36c-.15 1.74-.15 3.5 0 5.24l.04.36a.94.94 0 0 1 -1.02 1.02l-.36-.04c-1.74-.15-3.5-.15-5.24 0l-.36.04a.94.94 0 0 1 -1.02-1.02l.04-.36c.15-1.74.15-3.5 0-5.24l-.04-.36a.94.94 0 0 1 1.02-1.02l.36.04c1.74.15 3.5.15 5.24 0zm-5.44 1h-.53c.1.49.18.99.24 1.5h2.25v-.75h-1.82zm-.22 2.75-.02-.75h2.2v.75zm0 .5-.03.75h2.21v-.75zm-.32 2.75c.1-.49.19-.99.24-1.5h2.26v.75h-1.83l-.13.75zm6-6h-.54l-.14.75h-1.82v.75h2.25c.06-.51.14-1.01.24-1.5zm-.29 2-.03.75h-2.18v-.75zm0 2-.03-.75h-2.18v.75zm.05.5c.05.51.13 1.01.24 1.5h-.54c-.05-.25-.1-.5-.13-.75h-1.83v-.75z" fill="#024287" fill-rule="evenodd"/></svg>

<!-- by TradingView --><svg width="18" height="18" viewBox="0 0 18 18" xmlns="http://www.w3.org/2000/svg"><path fill="#F0F3FA" d="M0 0h18v18H0z"/><path fill-rule="evenodd" d="M11.98 5A.94.94 0 0 1 13 6.02l-.04.36c-.15 1.74-.15 3.5 0 5.24l.04.36A.94.94 0 0 1 11.98 13l-.36-.04c-1.74-.15-3.5-.15-5.24 0l-.36.04A.94.94 0 0 1 5 11.98l.04-.36c.15-1.74.15-3.5 0-5.24L5 6.02A.94.94 0 0 1 6.02 5l.36.04c1.74.15 3.5.15 5.24 0l.36-.04ZM6.54 6h-.53c.1.49.18.99.24 1.5H8.5v-.75H6.68L6.54 6Zm-.22 2.75L6.3 8H8.5v.75H6.32Zm0 .5-.03.75H8.5v-.75H6.32ZM6 12c.1-.49.19-.99.24-1.5H8.5v.75H6.67l-.13.75H6Zm6-6h-.54l-.14.75H9.5v.75h2.25c.06-.51.14-1.01.24-1.5Zm-.29 2-.03.75H9.5V8h2.21Zm0 2-.03-.75H9.5V10h2.21Zm.05.5c.05.51.13 1.01.24 1.5h-.54c-.05-.25-.1-.5-.13-.75H9.5v-.75H11.76Z" fill="#024287"/></svg>
